svg/razor_single_edge.svg

<svg xmlns="http://www.w3.org/2000/svg" viewBox="0 0 24 24"><path d="M22 5v3H2V5zm0 8v5H2v-5h1.5c.83 0 1.5-.67 1.5-1.5S4.33 10 3.5 10H2V9h20v1h-1.5c-.83 0-1.5.67-1.5 1.5s.67 1.5 1.5 1.5zm-9-2c0-.55-.45-1-1-1s-1 .45-1 1v2c0 .55.45 1 1 1s1-.45 1-1z"/></svg>

<svg xmlns="http://www.w3.org/2000/svg" id="mdi-razor-single-edge" viewBox="0 0 24 24"><path d="M22 5V8H2V5H22M22 13V18H2V13H3.5C4.33 13 5 12.33 5 11.5S4.33 10 3.5 10L2 10V9H22V10H20.5C19.67 10 19 10.67 19 11.5S19.67 13 20.5 13H22M13 11C13 10.45 12.55 10 12 10S11 10.45 11 11V13C11 13.55 11.45 14 12 14S13 13.55 13 13V11Z" /></svg>
